Internet-is-hard/flexbox/images/one.svg

<svg width="300" height="300" xmlns="http://www.w3.org/2000/svg"><g fill="none" fill-rule="evenodd"><path fill="#F5CF8E" d="M0 0h300v300H0z"/><path d="M144.48 122c-1.84.24-3.36-.48-4.72.16-.96.56-1.04 1.44-.96 2.64 0 .24.08.56.08.88.32 1.52 0 2.88.08 4.4v.48c.08.64.24 1.12.32 1.52l.4.56c.72.88 2.56.24 4.16.24h2.88l.08 5.92v1.52c0 .24 0 .4.08.64-.08.08-.08.16-.08.32v.8c0 .24-.08.48-.08.72-.08 2.32-.24 4.64-.16 6.96v3.68c0 2.32.08 12.48.08 19.2v.56c0 1.6-.64 3.76.24 4.48l.56.4c.88.32 1.92.4 3.04.32h.8c2.24-.48 5.04 1.12 6.08-.8.64-1.36-.08-3.2.16-5.04v-.72c0-.56.08-.96.16-1.52v-17.2c0-2.32.32-4.72.08-7.04 0-.24.08-.48.08-.8 0-1.04.08-2 .16-3.2v-7.04c0-.4-.08-2.96-.08-5.76v-.64c.08-.56.08-1.04.08-1.6v-.88c0-.32 0-.56-.08-.64.24-.96.08-2.08-.32-2.8-.08-.24-.16-.4-.4-.48a1.23 1.23 0 00-.48-.32c-2.48-.4-4.64-.24-7.12-.16l-.08.08h-2.8c-.56.08-.96.16-1.52.16h-.72zm.96 6.24c-.72-.08-1.44-.16-2.16-.16-1.04 0-1.04-1.6 0-1.6h9.52l.08 8h-.08v.56c-.24 1.92-.32 3.92-.08 5.84.08.56.08 1.04.08 1.6v16.4c-.08 1.28-.08 2.64-.08 3.92v.8c.4 2.32-.32 4.56-.08 6.88 0 .32 0 .56.08.64 0 .56 0 .96.08 1.36v1.76c0 .48-.24.72-.8.72-.24 0-.48-.08-.56-.16-.24-.64-.24-1.36-.32-2V170c.24-1.68 0-3.28.08-4.96v-3.52c.08-.08.08-.32.08-.56v-.64c0-1.04 0-2-.08-3.04 0-.32 0-.56.08-.8.24-5.04.24-9.92-.08-14.72v-1.04c-.08-1.84-.24-3.36 0-5.2v-7.44c-5.12 0-5.52.16-5.76.16z" fill="#5D6063"/></g></svg>

<?xml version="1.0" encoding="UTF-8" standalone="no"?>
<svg width="300px" height="300px" viewBox="0 0 300 300" version="1.1" xmlns="http://www.w3.org/2000/svg" xmlns:xlink="http://www.w3.org/1999/xlink">
    <!-- Generator: Sketch 3.7.1 (28215) - http://www.bohemiancoding.com/sketch -->
    <title>one</title>
    <desc>Created with Sketch.</desc>
    <defs></defs>
    <g id="Page-1" stroke="none" stroke-width="1" fill="none" fill-rule="evenodd">
        <g id="example-mockup" transform="translate(-169.000000, -361.000000)">
            <g id="one" transform="translate(169.000000, 361.000000)">
                <rect id="Rectangle-70" fill="#F5CF8E" x="0" y="0" width="300" height="300"></rect>
                <path d="M144.48,122 C142.64,122.24 141.12,121.52 139.76,122.16 C138.8,122.72 138.72,123.6 138.8,124.8 C138.8,125.04 138.88,125.36 138.88,125.68 C139.2,127.2 138.88,128.56 138.96,130.08 L138.96,130.56 C139.04,131.2 139.2,131.68 139.28,132.08 L139.68,132.64 C140.4,133.52 142.24,132.88 143.84,132.88 L146.72,132.88 L146.8,138.8 L146.8,140.32 C146.8,140.56 146.8,140.72 146.88,140.96 C146.8,141.04 146.8,141.12 146.8,141.28 L146.8,142.08 C146.8,142.32 146.72,142.56 146.72,142.8 C146.64,145.12 146.48,147.44 146.56,149.76 L146.56,153.44 C146.56,155.76 146.64,165.92 146.64,172.64 L146.64,173.2 C146.64,174.8 146,176.96 146.88,177.68 L147.44,178.08 C148.32,178.4 149.36,178.48 150.48,178.4 L151.28,178.4 C153.52,177.92 156.32,179.52 157.36,177.6 C158,176.24 157.28,174.4 157.52,172.56 L157.52,171.84 C157.52,171.28 157.6,170.88 157.68,170.32 L157.68,153.12 C157.68,150.8 158,148.4 157.76,146.08 C157.76,145.84 157.84,145.6 157.84,145.28 C157.84,144.24 157.92,143.28 158,142.08 L158,135.04 C158,134.64 157.92,132.08 157.92,129.28 L157.92,128.64 C158,128.08 158,127.6 158,127.04 L158,126.16 C158,125.84 158,125.6 157.92,125.52 C158.16,124.56 158,123.44 157.6,122.72 C157.52,122.48 157.44,122.32 157.2,122.24 C157.12,122.16 156.96,122 156.72,121.92 C154.24,121.52 152.08,121.68 149.6,121.76 L149.52,121.84 L146.72,121.84 C146.16,121.92 145.76,122 145.2,122 L144.48,122 Z M145.44,128.24 C144.72,128.16 144,128.08 143.28,128.08 C142.24,128.08 142.24,126.48 143.28,126.48 L152.8,126.48 L152.88,134.48 L152.8,134.48 L152.8,135.04 C152.56,136.96 152.48,138.96 152.72,140.88 C152.8,141.44 152.8,141.92 152.8,142.48 L152.8,158.88 C152.72,160.16 152.72,161.52 152.72,162.8 L152.72,163.6 C153.12,165.92 152.4,168.16 152.64,170.48 C152.64,170.8 152.64,171.04 152.72,171.12 C152.72,171.68 152.72,172.08 152.8,172.48 L152.8,174.24 C152.8,174.72 152.56,174.96 152,174.96 C151.76,174.96 151.52,174.88 151.44,174.8 C151.2,174.16 151.2,173.44 151.12,172.8 L151.12,170 C151.36,168.32 151.12,166.72 151.2,165.04 L151.2,161.52 C151.28,161.44 151.28,161.2 151.28,160.96 L151.28,160.32 C151.28,159.28 151.28,158.32 151.2,157.28 C151.2,156.96 151.2,156.72 151.28,156.48 C151.52,151.44 151.52,146.56 151.2,141.76 L151.2,140.72 C151.12,138.88 150.96,137.36 151.2,135.52 L151.2,128.08 C146.08,128.08 145.68,128.24 145.44,128.24 L145.44,128.24 Z" id="1" fill="#5D6063"></path>
            </g>
        </g>
    </g>
</svg>
